tela-icon-theme/src/symbolic/actions/align-vertical-bottom-to-anchor-symbolic.svg

<svg width="16" height="16" version="1.1" viewBox="0 0 4.233 4.233" xmlns="http://www.w3.org/2000/svg">
 <path d="m4.233 2.6456h-0.263v1.4554c2.1e-6 0.073294-0.059708 0.13256-0.133 0.132h-1.059c-0.072902 0-0.132-0.059098-0.132-0.132v-1.4544h-2.646v-0.26562h0.53v-2.249c0-0.072 0.057-0.132 0.13-0.132h1.06c0.073 0 0.132 0.059 0.132 0.132v2.25h0.265v-1.457c0-0.073 0.059-0.132 0.132-0.132h1.058c0.074 0 0.133 0.059 0.133 0.132v1.455h0.793zm-0.529 1.3244v-1.3244h-0.794v1.3244zm-0.529-1.59v-1.322h-0.794v1.323zm-1.587 0v-2.115h-0.794v2.115z" fill="#5d656b"/>
</svg>

<svg xmlns="http://www.w3.org/2000/svg" viewBox="0 0 4.233 4.233" height="16" width="16"><path d="M4.233 2.91H3.97v1.191a.132.132 0 0 1-.133.132H2.778a.132.132 0 0 1-.132-.132v-1.19H0v-.53h.53V.132C.53.06.587 0 .66 0H1.72c.073 0 .132.059.132.132v2.25h.265V.925c0-.073.059-.132.132-.132h1.058c.074 0 .133.059.133.132v1.455h.793zM3.704 3.97V2.91H2.91V3.97zM3.175 2.38V1.058h-.794v1.323zm-1.587 0V.265H.794V2.38z" style="marker:none" fill="#5d656b"/><rect transform="matrix(0 -1 -1 0 0 0)" ry="0" rx="0" y="-3.704" x="-3.969" height=".794" width="1.323" style="marker:none" opacity=".3" fill="#5d656b" fill-opacity=".931"/><path d="M3.175 2.646h-.794V1.058h.794zm-1.587 0H.794V.265h.794z" opacity=".1" fill="#5d656b" fill-opacity=".931"/></svg>
